packages/icons/src/svg/whistling.svg

<svg width="19" height="31" viewBox="0 0 19 31" fill="none" xmlns="http://www.w3.org/2000/svg">
<path fill-rule="evenodd" clip-rule="evenodd" d="M5.87446 0.102151C7.48547 0.546898 8.45737 2.31681 8.04525 4.05537C7.6767 5.61011 7.23771 8.07494 6.95799 10.967C7.33072 11.0098 7.72622 11.0441 8.13649 11.065C8.99557 11.1088 9.85697 11.0905 10.67 10.9926C10.8971 7.70412 11.3057 4.71277 11.689 2.61997C12.0115 0.859499 13.5954 -0.285537 15.2267 0.0624635C16.858 0.410464 17.919 2.11972 17.5966 3.88019C17.1724 6.19558 16.694 9.88493 16.5537 13.7742C16.5345 14.3061 16.5218 14.8403 16.5162 15.3737C16.5093 16.05 16.5023 16.548 16.4967 16.9473C16.4922 17.2707 16.4886 17.5294 16.4866 17.7653C16.4838 18.1018 16.4871 18.2471 16.489 18.3008C16.4982 18.3387 16.5177 18.419 16.5556 18.5709C16.643 18.9212 16.7641 19.4227 16.9268 20.2574C17.2691 22.0136 16.2274 23.7366 14.6002 24.106C12.9729 24.4754 11.3762 23.3512 11.0339 21.5951C10.899 20.9027 10.8059 20.5211 10.741 20.2611C10.7352 20.2378 10.7286 20.2121 10.7216 20.1843C10.6676 19.9718 10.5815 19.633 10.5281 19.2388C9.71712 19.258 8.93891 19.2117 8.25451 19.1458C7.73976 19.0962 7.22846 19.0296 6.73109 18.9516C6.86364 21.7002 7.24577 24.3734 7.97935 26.7052C8.51394 28.4045 7.67083 30.2497 6.09622 30.8266C4.5216 31.4035 2.81175 30.4937 2.27715 28.7944C0.874329 24.3353 0.551494 19.2998 0.680229 14.8463C0.693606 14.3835 0.711922 13.9252 0.734607 13.4724C0.961309 8.94788 1.62854 4.90302 2.21125 2.4448C2.62337 0.706243 4.26345 -0.342596 5.87446 0.102151Z" fill="#4354F0"/>
<path fill-rule="evenodd" clip-rule="evenodd" d="M13.2789 25.2144C14.4275 24.0658 16.2241 24 17.3208 25.0968C18.9561 26.7486 18.3592 28.5 17.4385 29.3739C16.2899 30.5225 14.4276 30.5225 13.279 29.3739L13.1614 29.2562C12.0128 28.1076 12.1303 26.363 13.2789 25.2144Z" fill="#4354F0"/>
<path fill-rule="evenodd" clip-rule="evenodd" d="M8.6047 15L8.63894 15.0075C9.04413 15.0966 9.6612 15.236 10.1957 15.3647C10.4628 15.4289 10.7106 15.4909 10.9016 15.5428C10.9969 15.5687 11.0798 15.5925 11.1445 15.6132C11.1768 15.6236 11.2062 15.6337 11.231 15.6432C11.2537 15.652 11.2808 15.6634 11.3027 15.6772C11.4169 15.7489 11.534 15.8796 11.5998 16.0344C11.6665 16.1914 11.6844 16.3827 11.5819 16.5759C11.4766 16.7743 11.2933 16.8708 11.1115 16.9189C11.0248 16.9418 10.9423 16.9527 10.8803 16.9601C10.8699 16.9614 10.8606 16.9625 10.8521 16.9635C10.8332 16.9657 10.8181 16.9674 10.8038 16.9694C10.785 16.972 10.7787 16.9736 10.7786 16.9736C10.7786 16.9736 10.7787 16.9736 10.7789 16.9735C10.7273 16.9897 10.6625 16.995 10.6123 16.9975C10.5563 17.0003 10.4929 17.0005 10.4305 16.9993C10.3121 16.9971 10.1873 16.9899 10.103 16.9835C9.85915 16.9924 9.66356 16.9639 9.50914 16.9086C9.35174 16.8522 9.24789 16.7718 9.18025 16.6896C9.04929 16.5306 9.04933 16.359 9.04935 16.3177L9.04935 16.3166C9.04935 16.2692 9.07733 16.2049 9.10178 16.1554C9.11176 16.1352 9.12245 16.1151 9.13304 16.096L7.6543 15.613V15.0918L8.6047 15ZM10.8027 16.7758C10.8032 16.7758 10.8037 16.7757 10.8042 16.7757C10.8117 16.7748 10.8191 16.7739 10.826 16.7731C10.8834 16.7662 10.9412 16.7581 10.9986 16.7429C11.1048 16.7149 11.2248 16.6589 11.3015 16.5145C11.3809 16.3648 11.3686 16.2132 11.3139 16.0845C11.2588 15.9545 11.1645 15.857 11.0969 15.814C11.0965 15.8139 11.0915 15.8114 11.0784 15.8063C11.0626 15.8002 11.0407 15.7926 11.0123 15.7835C10.9555 15.7653 10.879 15.7432 10.7862 15.718C10.6008 15.6676 10.3574 15.6068 10.0917 15.5428C9.5755 15.4185 8.98066 15.2839 8.57718 15.195L8.44741 15.2076C9.09829 15.3495 9.95033 15.5559 10.4263 15.7399C10.8695 15.9111 11.0657 16.2046 11.0124 16.467C10.9891 16.5818 10.918 16.689 10.8027 16.7758ZM7.95059 15.3029V15.4963L9.50756 16.0049L9.45593 16.0859C9.43691 16.1158 9.40803 16.1648 9.38419 16.213C9.3581 16.2658 9.34564 16.303 9.34564 16.3166C9.34564 16.3535 9.34689 16.485 9.44219 16.6007C9.48828 16.6567 9.55501 16.7072 9.6535 16.7425C9.75203 16.7778 9.89309 16.8017 10.0977 16.7931C10.4794 16.7771 10.6819 16.6228 10.7186 16.4424C10.7562 16.2572 10.6189 16.0363 10.2735 15.9028C9.72046 15.6891 8.59684 15.4348 7.95059 15.3029Z" fill="white"/>
<path fill-rule="evenodd" clip-rule="evenodd" d="M5.69137 12.0395C5.74042 11.9865 5.81956 11.9869 5.86814 12.0404C6.53466 12.7745 7.34624 13.9558 7.58499 15.1062C7.70513 15.6852 7.68248 16.2684 7.41031 16.7814C7.13819 17.2942 6.62857 17.7143 5.81694 17.9936C5.75111 18.0163 5.6809 17.9765 5.66012 17.9046C5.63935 17.8328 5.67588 17.7562 5.74172 17.7336C6.51479 17.4675 6.9626 17.0807 7.19395 16.6447C7.42525 16.2088 7.45212 15.7011 7.34116 15.1665C7.1177 14.0896 6.34459 12.9527 5.69052 12.2323C5.64194 12.1788 5.64232 12.0925 5.69137 12.0395Z" fill="white"/>
<path fill-rule="evenodd" clip-rule="evenodd" d="M1.90221 13.0085C2.0794 13.0494 2.18971 13.2252 2.1486 13.4012C1.76168 15.058 1.44296 16.931 1.34452 18.6128C1.24492 20.3143 1.37612 21.7507 1.82947 22.5859C2.04847 22.9893 2.32705 23.2248 2.67244 23.3091C3.02845 23.3959 3.51921 23.3381 4.18826 23.0161C5.53393 22.3684 7.44224 20.7293 10.0732 17.6318C10.1905 17.4937 10.3983 17.4762 10.5373 17.5928C10.6764 17.7093 10.694 17.9157 10.5766 18.0539C7.93808 21.1603 5.9546 22.8931 4.47543 23.605C3.73205 23.9628 3.07713 24.0817 2.51534 23.9446C1.94293 23.8049 1.5316 23.4158 1.24971 22.8965C0.701297 21.8862 0.586857 20.2845 0.686931 18.5748C0.788158 16.8454 1.11441 14.9341 1.50695 13.2533C1.54806 13.0773 1.72502 12.9677 1.90221 13.0085Z" fill="black"/>
</svg>

<svg width="19" height="31" fill="none" xmlns="http://www.w3.org/2000/svg"><path fill-rule="evenodd" clip-rule="evenodd" d="M5.874.102c1.611.445 2.583 2.215 2.171 3.953-.368 1.555-.807 4.02-1.087 6.912.373.043.768.077 1.178.098.86.044 1.721.026 2.534-.072.227-3.289.636-6.28 1.019-8.373.322-1.76 1.906-2.906 3.538-2.558 1.631.348 2.692 2.058 2.37 3.818-.425 2.316-.903 6.005-1.043 9.894-.02.532-.032 1.066-.038 1.6-.007.676-.014 1.174-.02 1.573l-.01.818c-.002.337.001.482.003.536l.067.27c.087.35.208.852.37 1.686.343 1.757-.699 3.48-2.326 3.849-1.627.37-3.224-.755-3.566-2.51a24.058 24.058 0 0 0-.293-1.335l-.02-.077c-.053-.212-.14-.551-.193-.945a19.12 19.12 0 0 1-2.273-.093 25.891 25.891 0 0 1-1.524-.194c.133 2.748.515 5.421 1.248 7.753.535 1.7-.308 3.545-1.883 4.122-1.574.576-3.284-.333-3.819-2.033C.874 24.335.551 19.3.68 14.846c.014-.463.032-.92.055-1.374.226-4.524.894-8.569 1.476-11.027C2.623.706 4.263-.343 5.874.102z" fill="#4354F0"/><path fill-rule="evenodd" clip-rule="evenodd" d="M13.279 25.214c1.149-1.148 2.945-1.214 4.042-.117 1.635 1.652 1.038 3.403.117 4.277a2.941 2.941 0 0 1-4.159 0l-.118-.118c-1.148-1.148-1.03-2.893.118-4.042z" fill="#4354F0"/><path fill-rule="evenodd" clip-rule="evenodd" d="m8.605 15 .034.008c.405.089 1.022.228 1.557.357.267.064.515.126.706.178a6 6 0 0 1 .329.1c.023.009.05.02.072.034a.811.811 0 0 1 .297.357.612.612 0 0 1-.018.542c-.105.198-.289.295-.47.343a1.672 1.672 0 0 1-.26.044l-.048.006-.025.005a.71.71 0 0 1-.167.023 2.71 2.71 0 0 1-.181.002 6.102 6.102 0 0 1-.328-.015c-.244.008-.44-.02-.594-.075a.735.735 0 0 1-.329-.22.58.58 0 0 1-.13-.371v-.001c0-.048.027-.112.052-.162l.031-.059-1.479-.483v-.521l.95-.092zm2.198 1.776h.001l.022-.003c.057-.007.115-.015.173-.03a.45.45 0 0 0 .303-.228.487.487 0 0 0 .012-.43.626.626 0 0 0-.217-.271l-.019-.008a5.533 5.533 0 0 0-.292-.088c-.185-.05-.429-.111-.694-.175a86.521 86.521 0 0 0-1.515-.348l-.13.013c.651.142 1.503.348 1.98.532.443.171.639.465.585.727a.521.521 0 0 1-.21.309zM7.95 15.303v.193l1.557.509-.052.08c-.02.03-.048.08-.072.128a.344.344 0 0 0-.038.104c0 .037 0 .168.096.284a.47.47 0 0 0 .211.142c.099.035.24.059.445.05.381-.016.584-.17.62-.35.038-.186-.1-.407-.444-.54-.554-.214-1.677-.468-2.323-.6z" fill="#fff"/><path fill-rule="evenodd" clip-rule="evenodd" d="M5.691 12.04a.118.118 0 0 1 .177 0c.667.735 1.478 1.916 1.717 3.066.12.58.097 1.162-.175 1.675-.272.513-.781.933-1.593 1.213-.066.022-.136-.017-.157-.09-.02-.071.016-.148.082-.17.773-.267 1.22-.653 1.452-1.09.231-.435.258-.943.147-1.477-.223-1.077-.996-2.214-1.65-2.935a.145.145 0 0 1 0-.192z" fill="#fff"/><path fill-rule="evenodd" clip-rule="evenodd" d="M1.902 13.008c.177.041.288.217.247.393-.387 1.657-.706 3.53-.804 5.212-.1 1.701.031 3.138.484 3.973.22.403.498.639.843.723.356.087.847.03 1.516-.293 1.346-.648 3.254-2.287 5.885-5.384a.33.33 0 0 1 .464-.04c.14.117.157.324.04.462-2.639 3.106-4.622 4.84-6.102 5.551-.743.358-1.398.477-1.96.34-.572-.14-.983-.53-1.265-1.049-.549-1.01-.663-2.611-.563-4.321.101-1.73.427-3.64.82-5.322a.33.33 0 0 1 .395-.245z" fill="#000"/></svg>
